frontend/public/svg/logos/whatsapp.svg

<svg width="186" height="187" viewBox="0 0 186 187" fill="none" xmlns="http://www.w3.org/2000/svg">
<g clip-path="url(#clip0)">
<path d="M8.84829 182.833C11.4115 182.494 13.9451 181.96 16.4271 181.235C16.9955 181.085 17.5625 180.935 18.1296 180.79C24.3504 179.196 31.0206 177.469 37.6536 175.626C41.3829 174.59 43.9545 174.986 46.5391 176.992C48.3047 178.364 50.5179 179.134 52.6575 179.88C53.1275 180.043 53.5948 180.208 54.0542 180.374C67.7287 185.372 81.8701 185.956 95.1308 185.829C96.706 185.927 98.2871 185.977 99.8728 185.976C115.661 185.976 131.843 181.134 146.966 171.844C164.1 161.318 175.673 146.057 181.362 126.484C185.99 110.557 186.23 93.0077 182.094 72.8345C177.05 48.222 163.646 29.2341 142.255 16.3896C131.976 10.2318 120.807 5.70121 109.143 2.95837C101.167 1.12996 92.9314 0.72977 84.8164 1.77678C74.913 2.93062 65.6923 5.88544 54.8956 9.96783C32.8695 18.2954 17.3571 34.4368 7.47004 59.3153C-0.865429 80.2925 -0.505172 103.487 8.60807 132.307C10.3552 137.833 10.5725 141.994 9.33397 146.222C7.69904 151.8 6.12909 157.494 4.60836 163.002C3.8877 165.616 3.1635 168.23 2.43584 170.843C2.30458 171.303 2.15826 171.762 2.00993 172.222C1.81303 172.824 1.61225 173.448 1.45342 174.083C0.762951 176.85 1.15071 179.257 2.54608 180.862C3.90273 182.421 6.14613 183.122 8.84829 182.833ZM18.8404 135.294C15.3212 125.757 14.0446 115.386 12.81 105.357C12.6656 104.184 12.5203 103.014 12.3742 101.843C10.7209 88.7395 12.017 76.3571 16.2268 65.0413C24.643 42.4127 38.4347 27.5146 58.388 19.4915C66.1682 16.3647 75.4479 13.0003 85.289 11.7526C100.232 9.85776 115.299 13.2477 132.703 22.42C146.814 29.857 157.041 39.6947 163.966 52.4933C168.367 60.7482 171.253 69.7254 172.487 78.9988C174.231 91.0584 175.522 105.384 171.876 120.177C167.451 138.141 157.551 151.629 141.612 161.409C128.473 169.561 113.255 173.735 97.7955 173.424C88.3442 173.285 80.0094 172.837 72.3211 172.052C65.2292 171.439 58.3605 169.268 52.2047 165.694C50.0425 164.312 47.5389 163.557 44.9731 163.514C43.7739 163.52 42.5806 163.685 41.4243 164.003C36.4893 165.325 31.4283 166.524 26.534 167.685C24.3182 168.21 22.103 168.739 19.8885 169.273C18.379 169.641 16.8695 170.021 15.0396 170.482L12.976 171C13.5621 168.843 14.1135 166.764 14.6491 164.742C16.0346 159.514 17.3439 154.577 18.8719 149.778C20.3493 145.142 20.9092 140.901 18.8404 135.294Z" fill="black"/>
<path d="M34.4151 66.8566C35.7153 70.0615 37.2582 73.1627 39.0305 76.1333C52.2229 96.9839 66.9621 115.638 82.8435 131.575C87.9826 136.625 93.4578 141.322 99.2316 145.633C104.008 149.437 109.927 151.522 116.034 151.55C119.184 151.527 122.312 151.03 125.314 150.077C134.312 147.302 142.051 142.276 149.074 137.259C151.995 135.173 153.656 132.573 153.882 129.741C154.108 126.881 152.805 123.965 150.114 121.312C141.698 113.013 132.676 105.09 124.18 97.7642C119.144 93.4239 115.713 93.3582 110.065 97.4932C109.351 98.0182 108.659 98.5774 107.988 99.1202C107.448 99.558 106.909 99.9958 106.356 100.415C101.023 104.462 100.167 104.442 94.9247 100.162C93.2058 98.8164 91.6739 97.2464 90.3704 95.4946L89.4515 94.2023C86.3221 89.9624 83.4086 85.5669 80.7222 81.0329C75.184 71.2968 75.5608 69.8154 85.1965 63.4214C85.3343 63.3302 85.4334 63.1912 85.4754 63.0314C86.6785 58.4626 84.7167 55.4331 82.4175 52.8399C79.8532 49.9467 77.2922 47.0499 74.7338 44.1498C71.7987 40.8275 68.8602 37.507 65.92 34.1881C64.9801 33.1274 63.9509 32.1219 63.0648 31.2621C61.1398 29.4007 59.0238 29.0199 56.7719 30.1337C49.2162 33.8749 40.7927 38.8934 35.5978 47.7664C31.9807 53.9465 31.516 60.219 34.2148 66.4103L34.4151 66.8566ZM74.1057 61.0361C72.965 61.6481 71.9063 62.4028 70.9553 63.282C67.6079 66.6742 66.2756 71.0861 67.3861 75.0825C72.4222 93.2053 79.7745 104.792 91.2276 112.653C97.6538 117.063 104.239 117.036 110.803 112.573C112.822 111.2 114.766 109.703 116.824 108.119C117.648 107.483 118.496 106.831 119.379 106.162L139.524 127.73C131.901 133.76 125.32 137.108 118.263 138.56C116.05 139.073 113.744 139.045 111.543 138.48C109.342 137.913 107.309 136.826 105.617 135.307C104.197 134.058 102.773 132.811 101.344 131.566C95.2824 126.276 89.0144 120.802 83.3397 114.969C71.3779 102.666 60.2007 88.5873 49.1683 71.9275C48.0361 70.2177 47.0522 68.3465 46.0999 66.5383C45.7166 65.8092 45.3333 65.0805 44.9388 64.3585C42.0752 59.1111 42.6988 54.0081 46.7412 49.6021C49.1971 47.0306 51.7899 44.5933 54.5082 42.301C55.6752 41.2778 56.8762 40.2255 58.1147 39.1065L75.188 60.3817C74.8218 60.6101 74.4594 60.828 74.1057 61.0361Z" fill="black"/>
</g>
<defs>
<clipPath id="clip0">
<rect width="185.087" height="185.744" fill="white" transform="translate(0.567627 0.773926)"/>
</clipPath>
</defs>
</svg>

<svg xmlns="http://www.w3.org/2000/svg" width="186" height="187" fill="none" viewBox="0 0 186 187"><g fill="#000" clip-path="url(#a)"><path d="M8.848 182.833a51 51 0 0 0 7.58-1.598q.85-.226 1.702-.445c6.22-1.594 12.89-3.321 19.524-5.164 3.729-1.036 6.3-.64 8.885 1.366 1.766 1.372 3.979 2.142 6.118 2.888q.707.245 1.397.494c13.675 4.998 27.816 5.582 41.077 5.455q2.363.148 4.742.147c15.788 0 31.97-4.842 47.093-14.132 17.134-10.526 28.707-25.787 34.396-45.36 4.628-15.927 4.868-33.476.732-53.65-5.044-24.612-18.448-43.6-39.839-56.444a116.2 116.2 0 0 0-33.112-13.432 69.2 69.2 0 0 0-24.327-1.181c-9.903 1.154-19.124 4.108-29.92 8.19C32.87 18.296 17.357 34.438 7.47 59.316c-8.335 20.978-7.975 44.172 1.138 72.992 1.747 5.526 1.964 9.687.726 13.915-1.635 5.578-3.205 11.272-4.726 16.78q-1.08 3.921-2.172 7.841c-.131.46-.278.919-.426 1.379a27 27 0 0 0-.557 1.861c-.69 2.767-.302 5.174 1.093 6.779 1.357 1.559 3.6 2.26 6.302 1.971m9.992-47.539c-3.519-9.537-4.795-19.908-6.03-29.937q-.216-1.758-.436-3.514c-1.653-13.103-.357-25.486 3.853-36.802 8.416-22.628 22.208-37.526 42.161-45.55 7.78-3.126 17.06-6.49 26.901-7.738 14.943-1.895 30.01 1.495 47.414 10.667 14.111 7.437 24.338 17.275 31.263 30.073A78.3 78.3 0 0 1 172.487 79c1.744 12.06 3.035 26.385-.611 41.178-4.425 17.964-14.325 31.452-30.264 41.232a80.06 80.06 0 0 1-43.816 12.015c-9.452-.139-17.787-.587-25.475-1.372a48.4 48.4 0 0 1-20.116-6.358 13.86 13.86 0 0 0-7.232-2.18c-1.2.006-2.392.171-3.549.489-4.935 1.322-9.996 2.521-14.89 3.682a1718 1718 0 0 0-6.645 1.588c-1.51.368-3.02.748-4.85 1.209l-2.063.518c.586-2.157 1.137-4.236 1.673-6.258 1.386-5.228 2.695-10.165 4.223-14.964 1.477-4.636 2.037-8.877-.032-14.484"/><path d="M34.415 66.857a68 68 0 0 0 4.616 9.276c13.192 20.85 27.931 39.505 43.813 55.442a160 160 0 0 0 16.388 14.058 27.17 27.17 0 0 0 16.802 5.917c3.15-.023 6.278-.52 9.28-1.473 8.998-2.775 16.737-7.801 23.76-12.818 2.921-2.086 4.582-4.686 4.808-7.518.226-2.86-1.077-5.776-3.768-8.429-8.416-8.299-17.438-16.222-25.934-23.548-5.036-4.34-8.467-4.406-14.115-.27a57 57 0 0 0-2.077 1.626c-.54.438-1.079.876-1.632 1.295-5.333 4.047-6.189 4.027-11.431-.253a24.5 24.5 0 0 1-4.555-4.667l-.919-1.293a157 157 0 0 1-8.729-13.17c-5.538-9.735-5.161-11.217 4.475-17.61a.67.67 0 0 0 .278-.39c1.204-4.57-.758-7.599-3.057-10.192q-3.847-4.34-7.684-8.69a9711 9711 0 0 0-8.814-9.962c-.94-1.06-1.97-2.066-2.855-2.926-1.925-1.861-4.041-2.242-6.293-1.128-7.556 3.74-15.98 8.76-21.174 17.632-3.617 6.18-4.082 12.453-1.383 18.644zm39.69-5.82a15.3 15.3 0 0 0-3.15 2.245c-3.347 3.392-4.68 7.804-3.569 11.8 5.036 18.123 12.389 29.71 23.842 37.571 6.426 4.41 13.011 4.383 19.575-.08 2.019-1.373 3.963-2.87 6.021-4.454.824-.636 1.672-1.288 2.555-1.957l20.145 21.568c-7.623 6.03-14.204 9.378-21.261 10.83a14.16 14.16 0 0 1-12.646-3.253q-2.13-1.874-4.273-3.741c-6.062-5.29-12.33-10.764-18.004-16.597-11.962-12.303-23.14-26.382-34.172-43.041-1.132-1.71-2.116-3.581-3.068-5.39-.383-.729-.767-1.457-1.161-2.18-2.864-5.247-2.24-10.35 1.802-14.756a99 99 0 0 1 7.767-7.301 321 321 0 0 0 3.607-3.195l17.073 21.276q-.55.342-1.082.654"/></g><defs><clipPath id="a"><path fill="#fff" d="M.568.774h185.087v185.744H.568z"/></clipPath></defs></svg>
